X:1
T:Roll On, O Billow of Fire
T:Roll On, O Billow of Fire
T:Philip Paul Bliss
T:Philip Paul Bliss, 1871
T:Public Domain Courtesy of the Cyber Hymnal™
T:Public Domain Courtesy of the Cyber Hymnal™
C:Philip Paul Bliss
Z:Public Domain
Z:Courtesy of the Cyber Hymnal™
%%score 1 ( 2 3 ) 4
L:1/8
Q:1/4=85
M:6/8
K:D
V:1 treble 
V:2 treble 
V:3 treble 
V:4 bass 
V:1
 DFF (FE)D | DFA d3 | dBB B^AB | Bcd c3 | Add dAB | =ccc B3 | BBB Bcd | ccB A2 ||"^Refrain" A | %9
w: 1.~Hark! the a- larm, * the|clang of the bells!|Sig- nal of dan- ger, it|ris- es and swells;|Flash- es like light- ning il-|lu- mine the sky,|See the red glare as the|flames mount on high.||
w: 2.~Oh, like a fiend~in * its|tow- er- ing wrath,|On, and de- struc- tion a-|lone points the path;|“Mer- cy, O Hea- ven,” the|suf- fer- ers wail,|Fee- ble hu- man- i- ty|naught can a- vail.||
w: 3.~Thou- sands are homeless, * and|quick to their cry,|Hea- ven- born char- i- ty|yields a sup- ply;|Up- ward we glance in our|ter- ri- ble grief,|“Give us this day,” brings the|prom- ised re- lief.||
w: 4.~Trea- sures have vanished, * and|rich- es have flown,|Hopes for the earth- life and|blast- ed and gone;|Cour- age, O bro- ther yield|not to des- pair,|“God is our re- fuge,” His|king- dom we share.||
 A2 A A2 A | AA (B/c/) d3 | ddd ddd | eee e3 | BBB ^AAA | BBB !fermata!B3 | AAA edc"^riten." | %16
w: |||||||
w: |||||||
w: |||||||
w: |||||||
 cde d3 |] %17
w: |
w: |
w: |
w: |
V:2
 z [A,DF][A,DF] z [A,DF][A,DF] | z [A,DF][A,DF] z [A,DF][A,DF] | z [B,DG][B,DG] z [B,DG][B,DG] | %3
w: |||
 [B,DG]3 [CG]3 | z [A,DF][A,DF] z [A,DF][A,DF] | [DA=c]3 [DGB]3 | z [B,E^G][B,EG] z [B,EG][B,EG] | %7
w: ||||
 z [B,DE^G][B,DEG] [CEA]2 || A | [Fd]2 A [Fd]2 [Fd] | [Fd][GB][GB] [FA]3 | %11
w: |Roll|on, roll on, O|bil- low of fire!|
 [GB][GB][GB] [GB][G^A][GB] | [^GB][Ac][Bd] [Ac]3 | [Fd][Fd][Fd] [Ec][Ec][Ec] | %14
w: Dash, with thy fu- ry- waves|high- er and higher;|Ours is a man- sion a-|
 [DB][GB][GB] !fermata![Ge]3 | [Gc][Gc][Gc] [Gc][GB][GA]"^riten." | [GA][GB][Gc] F3 |] %17
w: bid- ing and sure;|Ours is a king- dom e-|ter- nal, se- cure.|
V:3
 x6 | x6 | x6 | x6 | x6 | x6 | x6 | x5 || A | x2 A x3 | x6 | x6 | x6 | x6 | x6 | x6 | x6 |] %17
V:4
 [D,,D,]3 [D,,D,]3 | [D,,D,]3 [D,,D,]3 | [G,,G,]3 [G,,G,]3 | [G,,G,]3 [A,,A,]3 | %4
 [D,,D,]3 [D,,D,]3 | [F,,F,]3 [G,,G,]3 | [E,,E,]3 [E,,E,]3 | [E,,E,]3 [A,,A,]2 || A, | %9
 D,2 A, D,2 D, | D,D,D, D,3 | G,G,G, G,G,G, | E,E,E, A,3 | B,B,B, F,F,F, | G,G,G, !fermata!E,3 | %15
 A,A,A, A,A,A,,"^riten." | A,,A,,A,, D,3 |] %17

